src/main/resources/icons/groml_dark.svg

<svg width="16" height="16" xmlns="http://www.w3.org/2000/svg" fill="none">

 <g>
  <title>Layer 1</title>
  <rect id="svg_1" stroke="#57965c" fill="#253627" rx="1.5" height="11" width="11" y="2.32456" x="2.5"/>
  <g id="svg_2" transform="scale(0.5) translate(8, 8)">
   <path id="svg_3" fill="#57965c" d="m12.5355,4.46447c-1.9526,-1.95263 -5.11841,-1.95263 -7.07103,0c-1.95263,1.95262 -1.95263,5.11844 0,7.07103c1.6355,1.6355 4.12405,1.9015 6.03553,0.7964l0,-2.3319l-2.5,0l0,-3l5.5,0l0,6.8552l-0.5755,0.4504c-3.1403,2.4576 -7.69061,2.242 -10.58135,-0.6487c-3.1242,-3.1242 -3.1242,-8.18956 0,-11.31375c3.12419,-3.1242 8.18955,-3.1242 11.31375,0l-2.1214,2.12132z"/>
  </g>
 </g>
</svg>

<?xml version="1.0" encoding="utf-8"?>
<svg width="16" height="16" viewBox="0 0 16 16" fill="none" xmlns="http://www.w3.org/2000/svg">
<rect x="2.5" y="2.5" width="11" height="11" rx="1.5" fill="#57965C" stroke="#253627"/>
<g transform="scale(0.5) translate(8, 8)">
	<path d="M12.5355 4.46447C10.5829 2.51184 7.41709 2.51184 5.46447 4.46447C3.51184 6.41709 3.51184 9.58291 5.46447 11.5355C7.09997 13.171 9.58852 13.437 11.5 12.3319V10H9V7H14.5V13.8552L13.9245 14.3056C10.7842 16.7632 6.23389 16.5476 3.34315 13.6569C0.218951 10.5327 0.218951 5.46734 3.34315 2.34315C6.46734 -0.781049 11.5327 -0.781048 14.6569 2.34315L12.5355 4.46447Z" fill="#253627"/>
</g>
</svg>
